svgs/regular/alien-8bit.svg

<svg xmlns="http://www.w3.org/2000/svg" viewBox="0 0 576 512"><!--! Font Awesome Pro 6.3.0 by @fontawesome - https://fontawesome.com License - https://fontawesome.com/license (Commercial License) Copyright 2023 Fonticons, Inc. --><path d="M560 128L544 128c-8.875 0-16 7.125-16 16v96L480 240V176c0-8.875-7.125-16-16-16L432 160V96h32C472.9 96 480 88.88 480 80v-32C480 39.12 472.9 32 464 32L448 32c-8.875 0-16 7.125-16 15.1V64h-32C391.1 64 384 71.12 384 80V128H192V80C192 71.12 184.9 64 176 64h-32V48c0-8.875-7.125-15.1-16-15.1L112 32C103.1 32 96 39.12 96 48v32C96 88.88 103.1 96 112 96h32v64l-32 .0002c-8.875 0-16 7.125-16 16V240L48 240v-96C48 135.1 40.88 128 32 128L16 128c-8.875 0-16 7.125-16 15.1v128c0 8.875 7.125 16 16 16H64v80c0 8.875 7.125 16 16 16l48 0v80c0 8.875 7.125 16 16 16l96 0c8.875 0 16-7.125 16-15.1V448c0-8.875-7.125-15.1-16-15.1h-64v-48h224v48h-64c-8.875 0-16 7.125-16 15.1v16c0 8.875 7.125 15.1 16 15.1l96 0c8.875 0 16-7.125 16-16v-80l48 0c8.875 0 16-7.125 16-16v-80h48c8.875 0 16-7.125 16-16v-128C576 135.1 568.9 128 560 128zM464 336h-352V288h32V208H192v-32h192v32h48V288h32V336zM240 224l-32 .0004C199.1 224 192 231.1 192 240V288c0 8.875 7.125 16 16 16L240 304C248.9 304 256 296.9 256 288V240C256 231.1 248.9 224 240 224zM368 224L336 224C327.1 224 320 231.1 320 240V288c0 8.875 7.125 16 16 16l32 .0004C376.9 304 384 296.9 384 288V240C384 231.1 376.9 224 368 224z"/></svg>

<svg xmlns="http://www.w3.org/2000/svg" viewBox="0 0 576 512"><!-- Font Awesome Pro 6.0.0-alpha2 by @fontawesome - https://fontawesome.com License - https://fontawesome.com/license (Commercial License) --><path d="M560 128H544C535.125 128 528 135.125 528 144V240H480V176C480 167.125 472.875 160 464 160H432V96H464C472.875 96 480 88.875 480 80V48C480 39.125 472.875 32 464 32H448C439.125 32 432 39.125 432 48V64H400C391.125 64 384 71.125 384 80V128H192V80C192 71.125 184.875 64 176 64H144V48C144 39.125 136.875 32 128 32H112C103.125 32 96 39.125 96 48V80C96 88.875 103.125 96 112 96H144V160H112C103.125 160 96 167.125 96 176V240H48V144C48 135.125 40.875 128 32 128H16C7.125 128 0 135.125 0 144V272C0 280.875 7.125 288 16 288H64V368C64 376.875 71.125 384 80 384H128V464C128 472.875 135.125 480 144 480H240C248.875 480 256 472.875 256 464V448C256 439.125 248.875 432 240 432H176V384H400V432H336C327.125 432 320 439.125 320 448V464C320 472.875 327.125 480 336 480H432C440.875 480 448 472.875 448 464V384H496C504.875 384 512 376.875 512 368V288H560C568.875 288 576 280.875 576 272V144C576 135.125 568.875 128 560 128ZM464 336H112V288H144V208H192V176H384V208H432V288H464V336ZM240 224H208C199.125 224 192 231.125 192 240V288C192 296.875 199.125 304 208 304H240C248.875 304 256 296.875 256 288V240C256 231.125 248.875 224 240 224ZM368 224H336C327.125 224 320 231.125 320 240V288C320 296.875 327.125 304 336 304H368C376.875 304 384 296.875 384 288V240C384 231.125 376.875 224 368 224Z"/></svg>
